X:1
T:Title
%%score { 1 | 2 }
L:1/8
M:4/4
K:Eb
V:1 treble nm="Grand Piano"
V:2 bass 
V:1
 z4 z2[Q:1/4=100] [EG][FA] | [GB][GB][_G=A][Gc] [=GB]2 E_G | GG_GA =G2 G[FA] | [GB]B=AB cBGE | %4
 [DF]6 [EG][FA] | [GB][GB][_G=A][Gc] [=GB]2 [Ac][Ad] | eedc B2 EF | GcBG [DF][DA][B,DG][A,DF] | %8
[M:3/4] [G,E]6 |[M:1/4] [B,GB][Ge] |[M:4/4] [Ae][Ad] [Ad]>[Ac] [Ad]2 [DAc][DAd] | %11
 [Gc][GB] [GB]>[EG] [GB]2 [FA]G | FFBd dcB=A | [DFB]6 [B,AB][B,AB] | %14
 [Ge][Ge][Bd][Ac] [GB]2 [EB][EB] | [=Ec][Ec][EB][EG] [FA]2 [FB]>[Fc] | %16
 [GB][GB]GE [DA][DA] [DG]>[DF] |[M:3/4] [B,E]6 |] %18
V:2
 z4 z2 [E,B,][E,B,] | [E,E][E,E][E,C][E,=A,] [E,B,]2 [E,G,][E,_A,E] | %2
 [E,B,E][E,B,E][E,=A,E][E,CE] [E,B,E]2 [E,B,E][E,A,] | %3
 [E,G,][E,G,E][E,_G,E][E,=G,E] [E,A,E][E,G,E][E,B,E][E,G,] | [B,,B,]6 [E,B,][E,B,] | %5
 [E,E][E,E][E,C][E,=A,] [E,B,]2 [E,B,][F,B,] | %6
 [G,B,G][G,B,E][K:bass][A,B,E][A,E] [E,G,E]2 [E,G,][E,A,E] | %7
 [E,B,E][E,A,E][E,G,E][E,B,E] [B,,A,][B,,F,]B,,B,, |[M:3/4] E,6 |[M:1/4] E,[E,B,] | %10
[M:4/4] [F,B,][F,B,] [F,B,]>[F,B,] [B,,B,]2 B,,B,, | [E,E][E,E] [E,E]>[E,B,] [E,E]2 [D,B,][E,B,E] | %12
 [F,B,D][F,B,D][F,B,D][F,B,F] [F,B,F][F,EF][F,DF][F,CF] | B,,6 G,F, | %14
 [E,B,][E,B,][E,B,][E,E] [E,E]2 [E,G,][E,G,] | [C,G,][C,G,][C,G,][C,C] [F,C]2 [D,A,]>[D,A,] | %16
 [E,G,][E,B,][E,B,E][E,G,] [B,,F,][B,,F,] [B,,B,]>[B,,A,] |[M:3/4] [E,G,]6 |] %18

